!!!OTL: dueto
**kern	**kern
*part2	*part1
*staff2	*staff1
*I"Oboe	*I"Flute
*I'Ob.	*I'Fl.
*clefG2	*clefG2
*k[]	*k[]
*M4/4	*M4/4
=1	=1
4.a	4a
.	4a
8r	.
4.a	4b
.	4b
8r	.
=2	=2
4ff	4a
4b	4r
4a	4f
4cc	4f
=3	=3
16ffLL	4g
16dd	.
16cc	.
16eeJJ	.
16g	4cc
16r	.
4ee	.
.	4dd
8r	.
4a	4r
=4	=4
2a	4a
.	4r
2r	[2b
=5	=5
1a	2b]
.	2r
=6	=6
1g	1g
=7	=7
1r	4cc
.	4r
.	2r
=8	=8
1r	2f
.	2r
=9	=9
1r	2e
.	2a
!!linebreak:original
=10	=10
4ee	4ccc
4r	8ccc
.	8r
4g	8aL
.	8f
4a	8bJ
.	8r
=11	=11
4dd	4g
4a	4r
4e	4d
4a	4r
=12	=12
16b	4g
16r	.
16aLL	.
16aJJ	.
4r	4cc
16cc	4g
16r	.
16aLL	.
16ccJJ	.
16cc	16cc
16r	16r
8r	16aLL
.	16gJJ
=13	=13
16ee	16gLL
16r	16e
16g	16dd
16r	16aJJ
16g	16g
16r	16r
8r	8r
16bLL	16f
16eeJJ	16r
8r	8r
16A	16c
16r	16r
16e	16cc
16r	16r
!!linebreak:original
=14	=14
1r	16e
.	16r
.	8r
.	4r
.	2r
=15	=15
1r	1r
=16	=16
1r	1r
=17	=17
1r	1r
=18	=18
1r	1r
=19	=19
1r	1r
=20	=20
1r	1r
=21	=21
1r	1r
=22	=22
1r	1r
=23	=23
1r	1r
=24	=24
1r	1r
=25	=25
1r	1r
=26	=26
1r	1r
=27	=27
1r	1r
=28	=28
1r	1r
!!linebreak:original
=29	=29
1r	1r
=30	=30
1r	1r
=31	=31
1r	1r
=32	=32
1r	1r
==	==
*-	*-
!!!system-decoration: [(s1,s2)]